X:205
T:Money Musk. VWMLa.205
%%VWML:Anon2-3049-p128-0
F:http://www.vwml.org/record/Anon2/3049/p128
S:Anon. MS, late 18thC, Vaughan Williams Mem. Library
O:England;Yorkshire
Z:vmp/efdss.Simon Wilson. Reviewed PJH 2008.
M:C
L:1/8
Q:2/4=90
K:A
f|e>Ac>A e>Adf|e>Ac>A (B/c/B) df|\
e>Ac>A (c/d/e) ea|f>dB>e cA A:|
|:f/g/|a>ec>a e>ac>a|a>ed>a c>af>g|\
a>ef>a e>ac>a|f>dB>e cA Af/g/|
a>ec>a e>ac>a|a>ed>a c>aB>g|\
a>ef>a e>ad>a|c>aB>e cA A:|
T:Figary's Fancy. VWMLa.206
R:Country-dance
S:Anon. MS, late 18thC, Vaughan Williams Mem. Library
O:England;Yorkshire
Z:vmp/efdss.Simon Wilson. Reviewed PJH 2008.
M:2/4
L:1/8
Q:1/4=120
K:D
F/G/|AABc|d>eff|BBed|d/c/B/c/ AF/G/|\
AABc|d>eff|BBec|d3a|
g/a/g/f/ eg|f/g/f/e/ df|edcB|A/G/A/B/ Aa|\
g/a/g/f/ eg|f/g/f/e/ dA|BecA|d3|
K:Dm
"^Minore"e|fffe|dddf|efed|(d/^c/=B/c/) Ae|\
fffe|dddf|ee^cc|d3|]
